X:0851
T:Banks of Esk,
C:by A. Murray
M:2/4
L:1/8
Q:1/4=80
N:original has an A minor keysig with f's sharpened throughout
N:replace version on CD with this
I: :: ||
Z:Jack Campin * www.campin.me.uk * 2009
K:A Dorian
(A/G/)|EA  A(G/A/)|BA A(e/f/)|g>e  dB         |G>G z
(A/G/)|EA  A(G/A/)|BA A(e/f/)|g>d (e/d/)(c/B/)|A2  A:|
(e/g/)|a>b c'b    |ae ef     |g>e (d/g/)(d/B/)|G>G z
(e/g/)|a>b c'b    |ae e>a    |g>e (e/d/)(c/B/)|A>A z
(e/g/)|a>b c'b    |ae e(e/f/)|g>e (d/g/)(d/B/)|G>G z
(A/G/)|EA  A(G/A/)|BA A(e/f/)|g>d (e/d/)(c/B/)|A2  A|]
<end>
<start>
